!!!OTL: STORCH STORCH STANNE
!!!ARE: Europa, Mitteleuropa, Deutschland, Hessen, Odenwald, Alsbach
!!!SCT: E1855
!!!YEM: Copyright 1995, estate of Helmut Schaffrath.
**kern
*ICvox
*Ivox
*M2/4
*k[b-]
*F:
=1
{8cc
8cc
8dd
8dd
=2
8cc
8cc
8a
8r}
=3
{8cc
8cc
8dd
8dd
=4
8cc
8cc
8a
8r}
=5
{8cc
8cc
8dd
8dd
=6
8cc
8cc
8a
8r}
=7
{8cc
8cc
8dd
8dd
=8
8cc
8cc
8a
8r}
=9
{4cc
4b-
=10
2a}
==
!!!AGN: Kinder - Lied, Tier - Lied
!!!ONB: ESAC (Essen Associative Code) Database: ERK3
!!!AMT: simple duple
!!!AIN: vox
!!!EED: Helmut Schaffrath
!!!EEV: 1.0
*-
